build/category/ServiceRequestSolid.svg

<svg xmlns="http://www.w3.org/2000/svg" fill="none" viewBox="0 0 24 24" focusable="false"><path d="M0 0H24V24H0z"/><path fill="#74767B" fill-rule="evenodd" d="M4 8C4 6.34315 5.34315 5 7 5L17 5C18.6569 5 20 6.34315 20 8L20 14C20 15.6569 18.6569 17 17 17L9.52219 17L6.1121 19.7281C5.26091 20.409 4 19.803 4 18.7129L4 8ZM12.8499 13.9414C12.8499 14.4109 12.4693 14.7914 11.9999 14.7914C11.5305 14.7914 11.1499 14.4109 11.1499 13.9414C11.1499 13.472 11.5305 13.0914 11.9999 13.0914C12.4693 13.0914 12.8499 13.472 12.8499 13.9414ZM11.1023 7.16836C10.7433 7.16836 10.4523 7.45937 10.4523 7.81836C10.4523 8.17734 10.7433 8.46836 11.1023 8.46836L12.9921 8.46836C13.2581 8.46836 13.4738 8.68402 13.4738 8.95004C13.4738 9.17676 13.2825 9.46555 12.9044 9.61409C12.388 9.81698 11.6984 10.2017 11.3507 10.9235C11.195 11.2469 11.3309 11.6354 11.6543 11.7912C11.9777 11.947 12.3662 11.811 12.522 11.4876C12.6564 11.2084 12.9712 10.9846 13.3798 10.824C14.0778 10.5498 14.7738 9.87942 14.7738 8.95004C14.7738 7.96605 13.9761 7.16836 12.9921 7.16836L11.1023 7.16836Z"/></svg>

<svg xmlns="http://www.w3.org/2000/svg" fill="none" viewBox="0 0 24 24" focusable="false"><path fill="#74767B" fill-rule="evenodd" d="M4 8c0-1.66 1.34-3 3-3h10c1.65 0 3 1.34 3 3v6c0 1.65-1.35 3-3 3H9.52l-3.41 2.72C5.26 20.4 4 19.8 4 18.71zm8.85 5.94a.856.856 0 0 1-1.71 0 .856.856 0 0 1 1.71 0M11.1 7.16c-.36 0-.65.29-.65.65s.29.65.65.65h1.89c.26 0 .48.22.48.49 0 .22-.19.51-.57.66-.52.2-1.21.59-1.55 1.31-.16.32-.02.71.3.87.32.15.71.02.87-.31.13-.28.45-.5.85-.66.7-.28 1.4-.95 1.4-1.87 0-.99-.8-1.79-1.78-1.79z"/></svg>
